X: 8746
T: Cu Roi
R: jig
M: 6/8
K: Bminor
|:BEE GFE|BEE GFE|FEF DED|ABA ABc|
BEE GFE|BEE GFE|FEF DED|FED E3:|
|:eBB BAB|gBB fBB|eBB BAB|edB ABd|
eBB BAB|GBB FBB|edB BAF|FED E3:|

